X:940
T:McNamara's
S:Cathal McConnell
D:An Irish Jubilee (1970)
Z:Nigel Gatherer
M:6/8
L:1/8
K:G
BGG Add | B/c/dB BAG | BGG ADD | GAG GED |
BGG AFF | BAG ABc | dge f2d | cAF G2z :|
GBd g2e | fed cAF | GBd g2g |f/g/af gzg |
f/g/af g2e | fed cAF | BBB c/B/AG | BdB cBA :|
GBB B2d | cAA AFD | GBB BAG | BdB cAF |
GBB B2d | cAA ABc | dge f2d | cAF G3 :|
<end>
<start>
